codium.svg

<?xml version="1.0" encoding="UTF-8"?>
<svg viewBox="0 0 24 24" version="1.1" xmlns="http://www.w3.org/2000/svg" xmlns:xlink="http://www.w3.org/1999/xlink">
    <title>Codium</title>
    <defs>
        <radialGradient cx="100.047306%" cy="50.1383633%" fx="100.047306%" fy="50.1383633%" r="78.9477241%" gradientTransform="translate(1.0005, 0.5014), scale(1, 0.7016), rotate(-179.2), translate(-1.0005, -0.5014)" id="radialGradient-1">
            <stop stop-color="#6447FF" offset="0%"></stop>
            <stop stop-color="#6348FE" offset="6.66667%"></stop>
            <stop stop-color="#614DFC" offset="13.3333%"></stop>
            <stop stop-color="#5C54F8" offset="20%"></stop>
            <stop stop-color="#565EF3" offset="26.6667%"></stop>
            <stop stop-color="#4E6CEC" offset="33.3333%"></stop>
            <stop stop-color="#447BE4" offset="40%"></stop>
            <stop stop-color="#3A8DDB" offset="46.6667%"></stop>
            <stop stop-color="#2F9FD1" offset="53.3333%"></stop>
            <stop stop-color="#25B1C8" offset="60%"></stop>
            <stop stop-color="#1BC0C0" offset="66.6667%"></stop>
            <stop stop-color="#13CEB9" offset="73.3333%"></stop>
            <stop stop-color="#0DD8B4" offset="80%"></stop>
            <stop stop-color="#08DFB0" offset="86.6667%"></stop>
            <stop stop-color="#06E4AE" offset="93.3333%"></stop>
            <stop stop-color="#05E5AD" offset="100%"></stop>
        </radialGradient>
        <radialGradient cx="118.929292%" cy="69.52185%" fx="118.929292%" fy="69.52185%" r="159.828465%" gradientTransform="translate(1.1893, 0.6952), scale(0.6309, 1), rotate(-164.055), translate(-1.1893, -0.6952)" id="radialGradient-2">
            <stop stop-color="#6447FF" offset="0%"></stop>
            <stop stop-color="#6348FE" offset="6.66667%"></stop>
            <stop stop-color="#614DFC" offset="13.3333%"></stop>
            <stop stop-color="#5C54F8" offset="20%"></stop>
            <stop stop-color="#565EF3" offset="26.6667%"></stop>
            <stop stop-color="#4E6CEC" offset="33.3333%"></stop>
            <stop stop-color="#447BE4" offset="40%"></stop>
            <stop stop-color="#3A8DDB" offset="46.6667%"></stop>
            <stop stop-color="#2F9FD1" offset="53.3333%"></stop>
            <stop stop-color="#25B1C8" offset="60%"></stop>
            <stop stop-color="#1BC0C0" offset="66.6667%"></stop>
            <stop stop-color="#13CEB9" offset="73.3333%"></stop>
            <stop stop-color="#0DD8B4" offset="80%"></stop>
            <stop stop-color="#08DFB0" offset="86.6667%"></stop>
            <stop stop-color="#06E4AE" offset="93.3333%"></stop>
            <stop stop-color="#05E5AD" offset="100%"></stop>
        </radialGradient>
        <radialGradient cx="118.929292%" cy="69.5202952%" fx="118.929292%" fy="69.5202952%" r="159.824891%" gradientTransform="translate(1.1893, 0.6952), scale(0.631, 1), rotate(-164.055), translate(-1.1893, -0.6952)" id="radialGradient-3">
            <stop stop-color="#6447FF" offset="0%"></stop>
            <stop stop-color="#6348FE" offset="6.66667%"></stop>
            <stop stop-color="#614DFC" offset="13.3333%"></stop>
            <stop stop-color="#5C54F8" offset="20%"></stop>
            <stop stop-color="#565EF3" offset="26.6667%"></stop>
            <stop stop-color="#4E6CEC" offset="33.3333%"></stop>
            <stop stop-color="#447BE4" offset="40%"></stop>
            <stop stop-color="#3A8DDB" offset="46.6667%"></stop>
            <stop stop-color="#2F9FD1" offset="53.3333%"></stop>
            <stop stop-color="#25B1C8" offset="60%"></stop>
            <stop stop-color="#1BC0C0" offset="66.6667%"></stop>
            <stop stop-color="#13CEB9" offset="73.3333%"></stop>
            <stop stop-color="#0DD8B4" offset="80%"></stop>
            <stop stop-color="#08DFB0" offset="86.6667%"></stop>
            <stop stop-color="#06E4AE" offset="93.3333%"></stop>
            <stop stop-color="#05E5AD" offset="100%"></stop>
        </radialGradient>
        <radialGradient cx="130.604134%" cy="71.9853115%" fx="130.604134%" fy="71.9853115%" r="118.508848%" gradientTransform="translate(1.306, 0.7199), scale(1, 0.9793), rotate(-156.448), translate(-1.306, -0.7199)" id="radialGradient-4">
            <stop stop-color="#6447FF" offset="0%"></stop>
            <stop stop-color="#6348FE" offset="6.66667%"></stop>
            <stop stop-color="#614DFC" offset="13.3333%"></stop>
            <stop stop-color="#5C54F8" offset="20%"></stop>
            <stop stop-color="#565EF3" offset="26.6667%"></stop>
            <stop stop-color="#4E6CEC" offset="33.3333%"></stop>
            <stop stop-color="#447BE4" offset="40%"></stop>
            <stop stop-color="#3A8DDB" offset="46.6667%"></stop>
            <stop stop-color="#2F9FD1" offset="53.3333%"></stop>
            <stop stop-color="#25B1C8" offset="60%"></stop>
            <stop stop-color="#1BC0C0" offset="66.6667%"></stop>
            <stop stop-color="#13CEB9" offset="73.3333%"></stop>
            <stop stop-color="#0DD8B4" offset="80%"></stop>
            <stop stop-color="#08DFB0" offset="86.6667%"></stop>
            <stop stop-color="#06E4AE" offset="93.3333%"></stop>
            <stop stop-color="#05E5AD" offset="100%"></stop>
        </radialGradient>
        <radialGradient cx="130.604134%" cy="71.9836193%" fx="130.604134%" fy="71.9836193%" r="118.508848%" gradientTransform="translate(1.306, 0.7198), scale(1, 0.9793), rotate(-156.448), translate(-1.306, -0.7198)" id="radialGradient-5">
            <stop stop-color="#6447FF" offset="0%"></stop>
            <stop stop-color="#6348FE" offset="6.66667%"></stop>
            <stop stop-color="#614DFC" offset="13.3333%"></stop>
            <stop stop-color="#5C54F8" offset="20%"></stop>
            <stop stop-color="#565EF3" offset="26.6667%"></stop>
            <stop stop-color="#4E6CEC" offset="33.3333%"></stop>
            <stop stop-color="#447BE4" offset="40%"></stop>
            <stop stop-color="#3A8DDB" offset="46.6667%"></stop>
            <stop stop-color="#2F9FD1" offset="53.3333%"></stop>
            <stop stop-color="#25B1C8" offset="60%"></stop>
            <stop stop-color="#1BC0C0" offset="66.6667%"></stop>
            <stop stop-color="#13CEB9" offset="73.3333%"></stop>
            <stop stop-color="#0DD8B4" offset="80%"></stop>
            <stop stop-color="#08DFB0" offset="86.6667%"></stop>
            <stop stop-color="#06E4AE" offset="93.3333%"></stop>
            <stop stop-color="#05E5AD" offset="100%"></stop>
        </radialGradient>
        <radialGradient cx="38.5893674%" cy="49.3655118%" fx="38.5893674%" fy="49.3655118%" r="69.785027%" gradientTransform="translate(0.3859, 0.4937), scale(1, 0.2526), translate(-0.3859, -0.4937)" id="radialGradient-6">
            <stop stop-color="#05E5AD" offset="0%"></stop>
            <stop stop-color="#05E5AD" stop-opacity="0" offset="32%"></stop>
            <stop stop-color="#6447FF" offset="90.2778%"></stop>
        </radialGradient>
    </defs>
        <path d="M7.9514455,4 C9.09317324,4 10.1763614,4.24156151 11.1575508,4.67512467 C8.98363428,5.90836337 7.46688297,8.70188106 7.46688297,11.9514455 C7.46688297,15.2010785 8.98514232,17.9945962 11.1575508,19.2277663 C10.1763614,19.661398 9.09317324,19.902891 7.9514455,19.902891 C3.56015332,19.902891 0,16.3427377 0,11.9514455 C0,7.56015332 3.56015332,4 7.9514455,4 Z" id="Path" fill="#05E5AD" fill-rule="nonzero"></path>
        <path d="M7.9514455,4 C9.09317324,4 10.1763614,4.24156151 11.1575508,4.67512467 C8.98363428,5.90836337 7.46688297,8.70188106 7.46688297,11.9514455 C7.46688297,15.2010785 8.98514232,17.9945962 11.1575508,19.2277663 C10.1763614,19.661398 9.09317324,19.902891 7.9514455,19.902891 C3.56015332,19.902891 0,16.3427377 0,11.9514455 C0,7.56015332 3.56015332,4 7.9514455,4 Z" id="Path" fill="url(#radialGradient-1)" fill-rule="nonzero"></path>
        <path d="M14.2221054,7.06503447 C13.4179058,6.03586179 12.3677575,5.20924706 11.1570024,4.67512467 C11.9206905,4.24156151 12.7638252,4 13.6504875,4 C14.4876586,4 15.2872656,4.21606183 16.0148977,4.60308121 C15.3037855,5.13267947 14.6871319,5.98787851 14.2205974,7.06503447 L14.2221054,7.06503447 Z" id="Path" fill="url(#radialGradient-2)" fill-rule="nonzero"></path>
        <path d="M14.2205974,16.8381307 C14.6872005,17.9153552 15.3037855,18.7689777 16.0148977,19.300084 C15.2857575,19.6886799 14.4876586,19.9032337 13.6504875,19.9032337 C12.7623171,19.9032337 11.9191825,19.6616722 11.1570024,19.2281091 C12.3662495,18.6939867 13.4179058,17.8673034 14.2221054,16.8381307 L14.2205974,16.8381307 Z" id="Path" fill="url(#radialGradient-3)" fill-rule="nonzero"></path>
        <path d="M7.46633459,11.9514455 C7.46633459,8.70181251 8.98459394,5.90829482 11.1570024,4.67512467 C12.3662495,5.20917851 13.4179058,6.03586179 14.2220369,7.06503447 C13.6369837,8.41377577 13.2888993,10.1090934 13.2888993,11.9514455 C13.2888993,13.7937976 13.6384917,15.4891152 14.2220369,16.8378565 C13.4179058,17.8670292 12.3677575,18.6936439 11.1570024,19.2277663 C8.9830859,17.9945276 7.46633459,15.2010099 7.46633459,11.9514455 Z" id="Path" fill="#7962FE" fill-rule="nonzero"></path>
        <path d="M19.0388036,15.851526 C19.2638452,17.0502853 19.5893774,18.0554664 19.982429,18.7650705 C19.3178606,19.4867389 18.5392292,19.9022741 17.7050742,19.9022741 C17.1064486,19.9022741 16.5363388,19.6877888 16.0157202,19.2991929 C17.2984503,18.6165965 18.3621709,17.3938456 19.0388036,15.8530341 L19.0388036,15.851526 Z" id="Path" fill="url(#radialGradient-4)" fill-rule="nonzero"></path>
        <path d="M16.0157202,4.60308121 C16.5363388,4.21455378 17.1064486,4 17.7050742,4 C18.5377211,4 19.3163526,4.4156037 19.982429,5.1372036 C19.5908855,5.84680768 19.2653532,6.85198874 19.0388036,8.05074802 C18.3621709,6.50993654 17.2984503,5.28725416 16.0157202,4.60458926 L16.0157202,4.60308121 Z" id="Path" fill="url(#radialGradient-5)" fill-rule="nonzero"></path>
        <path d="M14.2223111,16.8373081 C15.2740359,15.4885668 15.9026168,13.7932492 15.9026168,11.9509657 C15.9026168,10.1086136 15.2740359,8.41329594 14.2223111,7.06455464 C14.6889141,5.98883818 15.3054992,5.13370768 16.0166799,4.60260138 C17.2994099,5.28519773 18.3631306,6.50794866 19.0396947,8.0486916 C18.8221934,9.20090711 18.6991506,10.531689 18.6991506,11.9494576 C18.6991506,13.3672263 18.8237015,14.6979396 19.0396947,15.8501551 C18.3631306,17.3909666 17.2994099,18.613649 16.0166799,19.2963139 C15.3054992,18.7667156 14.6889141,17.9115166 14.2223111,16.8343606 L14.2223111,16.8373081 Z" id="Path" fill="#7962FE" fill-rule="nonzero"></path>
        <path d="M14.2217627,16.8383364 C13.6366409,15.4895951 13.2886251,13.7942774 13.2886251,11.9519253 C13.2886251,10.1095732 13.638149,8.4142556 14.2217627,7.06551431 C15.2734875,8.4142556 15.9020684,10.1095732 15.9020684,11.9519253 C15.9020684,13.7942774 15.2734875,15.4895951 14.2217627,16.8383364 Z" id="Path" fill="#321BB2" fill-rule="nonzero"></path>
        <path d="M19.9822919,5.1372036 C20.3813071,4.4156037 20.8479102,4 21.3489926,4 C22.8133051,4 24,7.56015332 24,11.9514455 C24,16.3427377 22.8133051,19.902891 21.3489926,19.902891 C20.8494182,19.902891 20.3813071,19.4873558 19.9822919,18.7656874 C21.2650219,17.373487 22.1231685,14.8440144 22.1231685,11.9514455 C22.1231685,9.05894517 21.2650219,6.52796454 19.9822919,5.1372036 Z" id="Path" fill="#05E6AD" fill-rule="nonzero"></path>
        <path d="M19.9822919,5.1372036 C20.3813071,4.4156037 20.8479102,4 21.3489926,4 C22.8133051,4 24,7.56015332 24,11.9514455 C24,16.3427377 22.8133051,19.902891 21.3489926,19.902891 C20.8494182,19.902891 20.3813071,19.4873558 19.9822919,18.7656874 C21.2650219,17.373487 22.1231685,14.8440144 22.1231685,11.9514455 C22.1231685,9.05894517 21.2650219,6.52796454 19.9822919,5.1372036 Z" id="Path" fill="url(#radialGradient-6)" fill-rule="nonzero"></path>
        <path d="M19.8357373,11.9520624 C19.8357373,10.5342938 19.5461925,9.20351192 19.0390778,8.05129641 C19.2641194,6.85260566 19.5896516,5.84742461 19.9827717,5.13775198 C21.2655017,6.52851292 22.1236483,9.06100159 22.1236483,11.9520624 C22.1236483,14.8430547 21.2655017,17.3755434 19.9827717,18.7663043 C19.5911597,18.0566317 19.2656274,17.0514506 19.0390778,15.8527599 C19.5446844,14.7005444 19.8357373,13.3697625 19.8357373,11.9520624 Z" id="Path" fill="#7962FE" fill-rule="nonzero"></path>
        <path d="M19.0390778,15.8520059 C18.8215765,14.6997904 18.6985337,13.3690771 18.6985337,11.9513084 C18.6985337,10.5335397 18.823016,9.20282644 19.0390778,8.05061093 C19.5446844,9.20282644 19.8357373,10.5335397 19.8357373,11.9513084 C19.8357373,13.3690771 19.5461925,14.6997904 19.0390778,15.8520059 Z" id="Path" fill="#321BB2" fill-rule="nonzero"></path>
</svg>

<svg viewBox="0 0 24 24" xmlns="http://www.w3.org/2000/svg"><defs><radialGradient cx="100.047%" cy="50.138%" fx="100.047%" fy="50.138%" r="78.948%" gradientTransform="scale(-1 -.7016) rotate(.8 87.092 -143.415)" id="a"><stop stop-color="#6447FF" offset="0%"/><stop stop-color="#6348FE" offset="6.667%"/><stop stop-color="#614DFC" offset="13.333%"/><stop stop-color="#5C54F8" offset="20%"/><stop stop-color="#565EF3" offset="26.667%"/><stop stop-color="#4E6CEC" offset="33.333%"/><stop stop-color="#447BE4" offset="40%"/><stop stop-color="#3A8DDB" offset="46.667%"/><stop stop-color="#2F9FD1" offset="53.333%"/><stop stop-color="#25B1C8" offset="60%"/><stop stop-color="#1BC0C0" offset="66.667%"/><stop stop-color="#13CEB9" offset="73.333%"/><stop stop-color="#0DD8B4" offset="80%"/><stop stop-color="#08DFB0" offset="86.667%"/><stop stop-color="#06E4AE" offset="93.333%"/><stop stop-color="#05E5AD" offset="100%"/></radialGradient><radialGradient cx="118.929%" cy="69.522%" fx="118.929%" fy="69.522%" r="159.828%" gradientTransform="matrix(-.60663 -.27471 .17332 -.96153 1.79 1.69)" id="b"><stop stop-color="#6447FF" offset="0%"/><stop stop-color="#6348FE" offset="6.667%"/><stop stop-color="#614DFC" offset="13.333%"/><stop stop-color="#5C54F8" offset="20%"/><stop stop-color="#565EF3" offset="26.667%"/><stop stop-color="#4E6CEC" offset="33.333%"/><stop stop-color="#447BE4" offset="40%"/><stop stop-color="#3A8DDB" offset="46.667%"/><stop stop-color="#2F9FD1" offset="53.333%"/><stop stop-color="#25B1C8" offset="60%"/><stop stop-color="#1BC0C0" offset="66.667%"/><stop stop-color="#13CEB9" offset="73.333%"/><stop stop-color="#0DD8B4" offset="80%"/><stop stop-color="#08DFB0" offset="86.667%"/><stop stop-color="#06E4AE" offset="93.333%"/><stop stop-color="#05E5AD" offset="100%"/></radialGradient><radialGradient cx="118.929%" cy="69.52%" fx="118.929%" fy="69.52%" r="159.825%" gradientTransform="scale(-.631 -1) rotate(15.945 4.616 -10.975)" id="c"><stop stop-color="#6447FF" offset="0%"/><stop stop-color="#6348FE" offset="6.667%"/><stop stop-color="#614DFC" offset="13.333%"/><stop stop-color="#5C54F8" offset="20%"/><stop stop-color="#565EF3" offset="26.667%"/><stop stop-color="#4E6CEC" offset="33.333%"/><stop stop-color="#447BE4" offset="40%"/><stop stop-color="#3A8DDB" offset="46.667%"/><stop stop-color="#2F9FD1" offset="53.333%"/><stop stop-color="#25B1C8" offset="60%"/><stop stop-color="#1BC0C0" offset="66.667%"/><stop stop-color="#13CEB9" offset="73.333%"/><stop stop-color="#0DD8B4" offset="80%"/><stop stop-color="#08DFB0" offset="86.667%"/><stop stop-color="#06E4AE" offset="93.333%"/><stop stop-color="#05E5AD" offset="100%"/></radialGradient><radialGradient cx="130.604%" cy="71.985%" fx="130.604%" fy="71.985%" r="118.509%" gradientTransform="scale(-1 -.9793) rotate(23.552 3.49 -6.272)" id="d"><stop stop-color="#6447FF" offset="0%"/><stop stop-color="#6348FE" offset="6.667%"/><stop stop-color="#614DFC" offset="13.333%"/><stop stop-color="#5C54F8" offset="20%"/><stop stop-color="#565EF3" offset="26.667%"/><stop stop-color="#4E6CEC" offset="33.333%"/><stop stop-color="#447BE4" offset="40%"/><stop stop-color="#3A8DDB" offset="46.667%"/><stop stop-color="#2F9FD1" offset="53.333%"/><stop stop-color="#25B1C8" offset="60%"/><stop stop-color="#1BC0C0" offset="66.667%"/><stop stop-color="#13CEB9" offset="73.333%"/><stop stop-color="#0DD8B4" offset="80%"/><stop stop-color="#08DFB0" offset="86.667%"/><stop stop-color="#06E4AE" offset="93.333%"/><stop stop-color="#05E5AD" offset="100%"/></radialGradient><radialGradient cx="130.604%" cy="71.984%" fx="130.604%" fy="71.984%" r="118.509%" gradientTransform="scale(-1 -.9793) rotate(23.552 3.49 -6.272)" id="e"><stop stop-color="#6447FF" offset="0%"/><stop stop-color="#6348FE" offset="6.667%"/><stop stop-color="#614DFC" offset="13.333%"/><stop stop-color="#5C54F8" offset="20%"/><stop stop-color="#565EF3" offset="26.667%"/><stop stop-color="#4E6CEC" offset="33.333%"/><stop stop-color="#447BE4" offset="40%"/><stop stop-color="#3A8DDB" offset="46.667%"/><stop stop-color="#2F9FD1" offset="53.333%"/><stop stop-color="#25B1C8" offset="60%"/><stop stop-color="#1BC0C0" offset="66.667%"/><stop stop-color="#13CEB9" offset="73.333%"/><stop stop-color="#0DD8B4" offset="80%"/><stop stop-color="#08DFB0" offset="86.667%"/><stop stop-color="#06E4AE" offset="93.333%"/><stop stop-color="#05E5AD" offset="100%"/></radialGradient><radialGradient cx="38.589%" cy="49.366%" fx="38.589%" fy="49.366%" r="69.785%" gradientTransform="matrix(1 0 0 .2526 0 .369)" id="f"><stop stop-color="#05E5AD" offset="0%"/><stop stop-color="#05E5AD" stop-opacity="0" offset="32%"/><stop stop-color="#6447FF" offset="90.278%"/></radialGradient></defs><path d="M7.951 4c1.142 0 2.225.242 3.207.675-2.174 1.233-3.691 4.027-3.691 7.276 0 3.25 1.518 6.044 3.69 7.277A7.952 7.952 0 1 1 7.952 4Z" fill="#05E5AD"/><path d="M7.951 4c1.142 0 2.225.242 3.207.675-2.174 1.233-3.691 4.027-3.691 7.276 0 3.25 1.518 6.044 3.69 7.277A7.952 7.952 0 1 1 7.952 4Z" fill="url(#a)"/><path d="M14.222 7.065a7.983 7.983 0 0 0-3.065-2.39A5.02 5.02 0 0 1 13.65 4c.838 0 1.637.216 2.365.603-.711.53-1.328 1.385-1.794 2.462h.001Z" fill="url(#b)"/><path d="M14.22 16.838c.467 1.077 1.084 1.931 1.795 2.462a4.998 4.998 0 0 1-2.365.603 5.012 5.012 0 0 1-2.493-.675 7.995 7.995 0 0 0 3.065-2.39h-.001Z" fill="url(#c)"/><path d="M7.466 11.951c0-3.25 1.519-6.043 3.691-7.276a7.993 7.993 0 0 1 3.065 2.39c-.585 1.349-.933 3.044-.933 4.886 0 1.843.35 3.538.933 4.887a7.982 7.982 0 0 1-3.065 2.39c-2.174-1.233-3.69-4.027-3.69-7.277Z" fill="#7962FE"/><path d="M19.039 15.852c.225 1.198.55 2.203.943 2.913-.664.722-1.443 1.137-2.277 1.137-.599 0-1.169-.214-1.69-.603 1.283-.682 2.347-1.905 3.024-3.446v-.001Z" fill="url(#d)"/><path d="M16.016 4.603c.52-.388 1.09-.603 1.69-.603.832 0 1.61.416 2.276 1.137-.391.71-.717 1.715-.943 2.914-.677-1.541-1.74-2.764-3.023-3.446v-.002Z" fill="url(#e)"/><path d="M14.222 16.837a7.92 7.92 0 0 0 1.68-4.886 7.92 7.92 0 0 0-1.68-4.886c.467-1.076 1.083-1.931 1.795-2.462 1.282.682 2.346 1.905 3.023 3.446a21.313 21.313 0 0 0-.34 3.9c0 1.418.124 2.749.34 3.901-.677 1.541-1.74 2.764-3.023 3.446-.712-.53-1.328-1.384-1.795-2.462v.003Z" fill="#7962FE"/><path d="M14.222 16.838c-.585-1.348-.933-3.044-.933-4.886s.35-3.538.933-4.886a7.92 7.92 0 0 1 1.68 4.886 7.92 7.92 0 0 1-1.68 4.886Z" fill="#321BB2"/><path d="M19.982 5.137c.4-.721.866-1.137 1.367-1.137C22.813 4 24 7.56 24 11.951c0 4.392-1.187 7.952-2.651 7.952-.5 0-.968-.416-1.367-1.137 1.283-1.393 2.141-3.922 2.141-6.815 0-2.892-.858-5.423-2.14-6.814Z" fill="#05E6AD"/><path d="M19.982 5.137c.4-.721.866-1.137 1.367-1.137C22.813 4 24 7.56 24 11.951c0 4.392-1.187 7.952-2.651 7.952-.5 0-.968-.416-1.367-1.137 1.283-1.393 2.141-3.922 2.141-6.815 0-2.892-.858-5.423-2.14-6.814Z" fill="url(#f)"/><path d="M19.836 11.952c0-1.418-.29-2.748-.797-3.9.225-1.2.55-2.205.944-2.914 1.283 1.39 2.14 3.923 2.14 6.814s-.857 5.424-2.14 6.814c-.392-.71-.717-1.715-.944-2.913a9.727 9.727 0 0 0 .797-3.9Z" fill="#7962FE"/><path d="M19.04 15.852a21.312 21.312 0 0 1-.341-3.9c0-1.418.124-2.75.34-3.901a9.726 9.726 0 0 1 .797 3.9 9.7 9.7 0 0 1-.797 3.901Z" fill="#321BB2"/></svg>
